X:9
T:Aursundvals I
R:vals
Z:2001 Brian Wilson <baab@mediaone.net>
Z:Storbrekkingen, Track 26
Z:Also tune #3, Fel'klang
M:3/4
L:1/8
K:D
|: "D"F3 E D2 | "G"G3 FGB | "D"A4 d2 | "D/A"F3 E D2 \
 |[1 "A/E"E4 B2 | "A"B2 A2 F2 | "D"D4 B2 | "A"B2 A2 G2 \
:|[2 "Em"E4 d2 | "Em/B"d2 c2 B2 | "E"B2 A2 ^G2 | "A"A3 GFG |
|: "D"A2 B2 c2 | "D/A"d2 e2 f2 | "Em/B"g2 f2 e2 | "Em"B4 e2 \
 |[1 "G"e2 d2 B2 | "G/B"G3 FGA | "A7"B2 A2 G2 | "D"F3 EFG \
:|[2 "A/E"e3 dcB | "A7"A2 f2 e2 | "D"d3 e"A"dc | "D"d4 A2 |
|:  "D"d3 edc | "D/A"d2 efgb | "D"a2 f2 d2 | "D/A"A3 faf \
|  "G"g2 efge | "D"f2 d2 cd |[1 "E"ed cB cd | "A"e4 A2 \
                           :|[2 "A"ed cA Bc | "D"d3 edc |
|: "G"B2 gfga | "G/B"g4 B2 | "D/A"A2 fefg | "D"f3 e d2 \
 |[1 "A"c3 def | "A/E"e3 dcB | "D"A2 fg ab | "D7/A"a2 f2 d2 \
:|[2 "A"cd ef gb | "D"a2 fd fa | "A"g2 ec (3ABc |
|[1 "D"d3 BAG |[2 "D"d3e"A"dc | "D"d4  ||

